svg/transport/parking_lights_fill.svg

<?xml version="1.0" encoding="UTF-8"?>
<svg width="24px" height="24px" viewBox="0 0 24 24" version="1.1" xmlns="http://www.w3.org/2000/svg" xmlns:xlink="http://www.w3.org/1999/xlink">
    <title>parking_lights_fill</title>
    <g id="页面-1" stroke="none" stroke-width="1" fill="none" fill-rule="evenodd">
        <g id="Transport" transform="translate(-192.000000, -240.000000)" fill-rule="nonzero">
            <g id="parking_lights_fill" transform="translate(192.000000, 240.000000)">
                 <path d="M24,0 L24,24 L0,24 L0,0 L24,0 Z M12.5934901,23.257841 L12.5819402,23.2595131 L12.5108777,23.2950439 L12.4918791,23.2987469 L12.4918791,23.2987469 L12.4767152,23.2950439 L12.4056548,23.2595131 C12.3958229,23.2563662 12.3870493,23.2590235 12.3821421,23.2649074 L12.3780323,23.275831 L12.360941,23.7031097 L12.3658947,23.7234994 L12.3769048,23.7357139 L12.4804777,23.8096931 L12.4953491,23.8136134 L12.4953491,23.8136134 L12.5071152,23.8096931 L12.6106902,23.7357139 L12.6232938,23.7196733 L12.6232938,23.7196733 L12.6266527,23.7031097 L12.609561,23.275831 C12.6075724,23.2657013 12.6010112,23.2592993 12.5934901,23.257841 L12.5934901,23.257841 Z M12.8583906,23.1452862 L12.8445485,23.1473072 L12.6598443,23.2396597 L12.6498822,23.2499052 L12.6498822,23.2499052 L12.6471943,23.2611114 L12.6650943,23.6906389 L12.6699349,23.7034178 L12.6699349,23.7034178 L12.678386,23.7104931 L12.8793402,23.8032389 C12.8914285,23.8068999 12.9022333,23.8029875 12.9078286,23.7952264 L12.9118235,23.7811639 L12.8776777,23.1665331 C12.8752882,23.1545897 12.8674102,23.1470016 12.8583906,23.1452862 L12.8583906,23.1452862 Z M12.1430473,23.1473072 C12.1332178,23.1423925 12.1221763,23.1452606 12.1156365,23.1525954 L12.1099173,23.1665331 L12.0757714,23.7811639 C12.0751323,23.7926639 12.0828099,23.8018602 12.0926481,23.8045676 L12.108256,23.8032389 L12.3092106,23.7104931 L12.3186497,23.7024347 L12.3186497,23.7024347 L12.3225043,23.6906389 L12.340401,23.2611114 L12.337245,23.2485176 L12.337245,23.2485176 L12.3277531,23.2396597 L12.1430473,23.1473072 Z" id="MingCute" fill-rule="nonzero"></path>
                <path d="M4.70711,16.2929 C5.09763,16.6834 5.09763,17.3166 4.70711,17.7071 L3.70711,18.7071 C3.31658,19.0976 2.68342,19.0976 2.29289,18.7071 C1.90237,18.3166 1.90237,17.6834 2.29289,17.2929 L3.29289,16.2929 C3.68342,15.9024 4.31658,15.9024 4.70711,16.2929 Z M8.77572,7.13551 C10.4558,8.05734 11.5,9.82141 11.5,11.7377 L11.5,12.2623 C11.5,14.1787 10.4558,15.9427 8.77572,16.8646 C7.28945,17.6801 5.33082,16.8589 5.14684,15.0192 L5.08937422,14.3682375 C5.03656812,13.6805813 5,12.884925 5,12 C5,11.115075 5.03656812,10.3194581 5.08937422,9.63180047 L5.14684,8.98082 L5.14684,8.98082 C5.33082,7.14112 7.28945,6.31999 8.77572,7.13551 Z M3,11 C3.55228,11 4,11.4477 4,12 C4,12.51285 3.61395571,12.9355092 3.11662025,12.9932725 L3,13 L2,13 C1.44772,13 1,12.5523 1,12 C1,11.48715 1.38604429,11.0644908 1.88337975,11.0067275 L2,11 L3,11 Z M3.70711,5.29289 L4.70711,6.29289 C5.09763,6.68342 5.09763,7.31658 4.70711,7.70711 C4.31658,8.09763 3.68342,8.09763 3.29289,7.70711 L2.29289,6.70711 C1.90237,6.31658 1.90237,5.68342 2.29289,5.29289 C2.68342,4.90237 3.31658,4.90237 3.70711,5.29289 Z M21.7071,5.29289 C21.3166,4.90237 20.6834,4.90237 20.2929,5.29289 L19.2929,6.29289 C18.9024,6.68342 18.9024,7.31658 19.2929,7.70711 C19.6834,8.09763 20.3166,8.09763 20.7071,7.70711 L21.7071,6.70711 C22.0976,6.31658 22.0976,5.68342 21.7071,5.29289 Z M19.2929,16.2929 C18.9024,16.6834 18.9024,17.3166 19.2929,17.7071 L20.2929,18.7071 C20.6834,19.0976 21.3166,19.0976 21.7071,18.7071 C22.0976,18.3166 22.0976,17.6834 21.7071,17.2929 L20.7071,16.2929 C20.3166,15.9024 19.6834,15.9024 19.2929,16.2929 Z M22,11 C22.5523,11 23,11.4477 23,12 C23,12.5523 22.5523,13 22,13 L21,13 C20.4477,13 20,12.5523 20,12 C20,11.4477 20.4477,11 21,11 L22,11 Z M18.8532,8.98082 C18.6692,7.14112 16.7105,6.31999 15.2243,7.13551 C13.5442,8.05734 12.5,9.8214 12.5,11.7377 L12.5,12.2623 C12.5,14.1787 13.5442,15.9427 15.2243,16.8646 C16.7105,17.6801 18.6692,16.8589 18.8532,15.0192 L18.9106469,14.3682375 C18.9634375,13.6805813 19,12.884925 19,12 C19,11.115075 18.9634375,10.3194581 18.9106469,9.63180047 L18.8532,8.98082 L18.8532,8.98082 Z" id="形状" fill="#09244B"></path>
            </g>
        </g>
    </g>
</svg>

<svg xmlns="http://www.w3.org/2000/svg" width="24" height="24"><g fill="none" fill-rule="nonzero"><path d="M24 0v24H0V0h24ZM12.593 23.258l-.011.002-.071.035-.02.004-.014-.004-.071-.035c-.01-.004-.019-.001-.024.005l-.004.01-.017.428.005.02.01.013.104.074.015.004.012-.004.104-.074.012-.016.004-.017-.017-.427c-.002-.01-.009-.017-.017-.018Zm.265-.113-.013.002-.185.093-.01.01-.003.011.018.43.005.012.008.007.201.093c.012.004.023 0 .029-.008l.004-.014-.034-.614c-.003-.012-.01-.02-.02-.022Zm-.715.002a.023.023 0 0 0-.027.006l-.006.014-.034.614c0 .012.007.02.017.024l.015-.002.201-.093.01-.008.004-.011.017-.43-.003-.012-.01-.01-.184-.092Z"/><path fill="#09244B" d="M4.707 16.293a1 1 0 0 1 0 1.414l-1 1a1 1 0 0 1-1.414-1.414l1-1a1 1 0 0 1 1.414 0Zm4.069-9.157a5.25 5.25 0 0 1 2.724 4.602v.524a5.25 5.25 0 0 1-2.724 4.603c-1.487.815-3.445-.006-3.63-1.846l-.057-.65a30.988 30.988 0 0 1 0-4.737l.058-.651C5.33 7.14 7.289 6.32 8.776 7.136ZM3 11a1 1 0 0 1 .117 1.993L3 13H2a1 1 0 0 1-.117-1.993L2 11h1Zm.707-5.707 1 1a1 1 0 0 1-1.414 1.414l-1-1a1 1 0 0 1 1.414-1.414Zm18 0a1 1 0 0 0-1.414 0l-1 1a1 1 0 0 0 1.414 1.414l1-1a1 1 0 0 0 0-1.414Zm-2.414 11a1 1 0 0 0 0 1.414l1 1a1 1 0 0 0 1.414-1.414l-1-1a1 1 0 0 0-1.414 0ZM22 11a1 1 0 1 1 0 2h-1a1 1 0 1 1 0-2h1Zm-3.147-2.02c-.184-1.839-2.143-2.66-3.629-1.844a5.25 5.25 0 0 0-2.724 4.602v.524a5.25 5.25 0 0 0 2.724 4.603c1.486.815 3.445-.006 3.63-1.846l.057-.65a30.997 30.997 0 0 0 0-4.737l-.058-.651Z"/></g></svg>
